X:1
T:The Ghost of the Piano
T:The Ghost of the Piano
T:Arthur Schutt
T:Copyright 1923 by Jack Mills Inc
T:Copyright 1923 by Jack Mills Inc
T:Copyright 1923 by Jack Mills Inc
T:Copyright 1923 by Jack Mills Inc
C:Arthur Schutt
Z:Copyright 1923 by Jack Mills Inc
%%score { ( 1 3 ) | 2 }
L:1/8
Q:1/4=205
M:2/2
K:Eb
V:1 treble nm="Piano" snm="Pno."
V:3 treble 
V:2 bass 
V:1
"^Mysterioso"!f! z2 !>![G,G][CE] z2 !>![Cc][EG] | z2 !>![Ee][Gc] z2 !>![Gg][ce] | %2
 [FAcdf] [Gg]2 [Acda] !>![Gcdg]2 [Fcdf]2 | !>![G=Bdg]2 z2 z4 |: %4
!mp!!f!"_-" !>![CEGc]4 !>![CFAc]3 !>![CFAc] | !>![CEGc]4 z [Gg] [=A=a][=B=b] | %6
 [cegc']2 [dd']2 [ee']2 [cegc']2 | [df=bd'] [ee']2 [^c^c'] [dfbd']2 z2 | %8
 !>![DF=Bd]4 !>![DAcd]3 !>![DAcd] | !>![DG=Bd]4 z [Gg] [=A=a][_B_b] | %10
 [=Bdg=b]2 [cc']2 [dfbd'] [ee']2 [dd'] | [cegc']4 z2!8va(! [c'c'']2 | %12
 [=b=b']2 [aa']2 [gg']2 [ff']2 | [ee'][ff'] [gg']4 [c'c'']2 | %14
 [=b=b']2 [aa']2 [gg'][aa'] [gg'][ff'] | [ee'][dd'] [cc']4!8va)! [G=Bdg]2 | %16
 !>![CEGc]4 !>![CFAc]3 !>![CFAc] | !>![CEGc]4 z2 [e^f=ac'e']2 | %18
 [dg=bd']2 [egbe']2 [dgbd'] [egbe']2 [dgbd'] |1 [cegc']4 [G=Bdg]4 :|2 [cegc']4 [df_bd']4 |: %21
 z2 [_G_g][Ff] e[Gg] [Ff][Ee] | [_G_g][Ff] e[Bb] z4 | z2 [_G_g][Ff] e[Gg] [Ff][Ee] | %24
 [_G_g][Ff] e[Bb] z4 | [^f=a=b]e =A[_e_g_b] z4 | [fa]d B[e_g] z4 | %27
 [e'_g'] [d'f']2"_L.H." [eg] [df]2 [EG][DF]- | [DF][E_G] [DF]2 [DFAB]2 z2 | %29
 z2 [_G_g][Ff] e[Gg] [Ff][Ee] | [_G_g][Ff] e[Bb] z4 | z2 [_G_g][Ff] e[Gg] [Ff][Ee] | %32
 [_G_g][Ff] e[Bb] z4 | [^f=a=b]e =A[_e_g_b] z4 | [fa]d B[e_g] z4 | %35
 [c'_g'] [=ae']2"_L.H." [c_g] [=Ae]2 [C_G][=A,E] | [=A,E]=A [D_A_c]B [E_GBe]2 z2 :| %37
 !>![CEGc]4 !>![CFAc]3 !>![CFAc] | !>![CEGc]4 z [Gg] [=A=a][=B=b] | %39
 [cegc']2 [dd']2 [ee']2 [cegc']2 | [df=bd'] [ee']2 [^c^c'] [dfbd']2 z2 | %41
 !>![DF=Bd]4 !>![DAcd]3 !>![DAcd] | !>![DG=Bd]4 z [Gg] [=A=a][_B_b] | %43
 [=Bdg=b]2 [cc']2 [dfbd'] [ee']2 [dd'] | [cegc']4 z2!8va(! [c'c'']2 | %45
 [=b=b']2 [aa']2 [gg']2 [ff']2 | [ee'][ff'] [gg']4 [c'c'']2 | %47
 [=b=b']2 [aa']2 [gg'][aa'] [gg'][ff'] | [ee'][dd'] [cc']4!8va)! [G=Bdg]2 | %49
 !>![CEGc]4 !>![CFAc]3 !>![CFAc] | !>![CEGc]4 z2 [e^f=ac'e']2 | %51
 [dg=bd']2 [egbe']2 [dgbd'] [egbe']2 [dgbd'] |!<(! [CEGc]4!<)! !>![cegc'] z z2 | %53
[M:4/4]"^TRIO" [=ae'=a']2 z2 [d_ad']2 [dad']2 | [=Ae=a]2 z2 [D_Ad]2 [DAd]2 | %55
 [=A,E=A]2 [G,_DG]2 [F,=B,F]2 [E,=A,E]2 | [D,A,B,D]2 z2 [Bdfb]2 z2 |:[K:Gb] z2 (3BGE z2 (3eBG | %58
 z2 (3geB z b g2 | [efae']2 [dfad']2 [=cfa=c']2 [_cfa_c']2 | [Bdgb]2 [be'][gd'] [eb][dg] [Be][Gd] | %61
 [da][fb] [da][fb] [ac'][fb] [da][fb] | (3aba gB g2 z2 | [=Af][eg] [Af][eg] [Af][eg] [Af][eg] | %64
 f [FAB]2 f [FA_c]f [FAB]2 | z2 (3BGE z2 (3eBG | z2 (3geB z b g2 | %67
 [efae']2 [dfad']2 [=cfa=c']2 [_cfa_c']2 | [Bdgb]4 [e=gbe']4 | %69
 [da][fb] [da][fb] [ac'][fb] [da][fb] | [dg] [gbe']2 [gbe'] [e=gbe']2 [egbd']2 | %71
 g [Bc=e]2 f [F_ce]f [Fce]d | [GBdg]2 z2!8va(! [gbd'g']2 z2!8va)! :| %73
[M:4/4]!ff!"^Break" (3F,^F,=G, A,=A, B,C =CD | (3=DE=E FG =GA =AB | (3_c=c^c =de =ef g=g | %76
!<(! a2 [dfad']2!<)! [gbd'g']2 z2 |] %77
V:2
 !>![C,,C,]2 z2 !>![E,,E,]2 z2 | !>![G,,G,]2 z2 !>![C,C]2 z2 | %2
 !arpeggio![F,,C,A,]2 z4 !arpeggio![F,,C,A,]2 | [G,,D,=B,]2 !>![F,,F,]2 !>![E,,E,]2 !>![D,,D,]2 |: %4
 !>![C,,C,]4 !>![F,,F,]3 !>![F,,F,] | !>![E,,E,]4 z [G,,G,] [^F,,^F,][=F,,=F,] | %6
 [C,,C,]2 [G,CE]2 [C,,C,]2 [G,CE]2 | [G,,D,=B,]2 [B,DF]2 z2 [G,,,G,,]2 | %8
 !>![G,,G,]4 !>![F,,F,]3 !>![F,,F,] | !>![D,,D,]4 z [G,,G,] [G,,G,][^F,,^F,] | %10
 [F,,F,]2 [=B,DF]2 [G,,,G,,]2 [B,DF]2 | [C,,G,,C,]2 [C,C]2 [G,,G,]2 [E,,E,]2 | %12
 [F,,F,]2 [=B,DF]2 [G,,,G,,]2 [G,B,DF]2 | [E,,E,]2 [G,CE]2 [G,,,G,,]2 [G,CE]2 | %14
 !arpeggio![G,,D,=B,]2 [B,DF]2 [G,,,G,,]2 [B,DF]2 | [E,,E,]2 [G,CE]2 [G,,,G,,]2 [G,=B,DF]2 | %16
 !>![C,,C,]4 !>![F,,F,]3 !>![F,,F,] | !>![E,,E,]4 z2 [=A,,^F,]2 | %18
 [=B,,F,]2 [=B,DF]2 [G,,,G,,]2 [B,DF]2 |1 [C,,C,]2 [G,,,G,,]2 !arpeggio![G,,D,=B,]4 :|2 %20
 [C,C]4 [_B,,F,_B,]2 !>![B,,,B,,]2 |: [E,,E,]2 [_G,B,E]2 [B,,,B,,]2 [_G,B,E]2 | %22
 !arpeggio![E,,B,,E,]2 z2 z B,,, !>!B,,2 | !>![E,,E,]2 [_G,B,E]2 [B,,,B,,]2 [_G,B,E]2 | %24
 !arpeggio![E,,B,,E,]2 z2 z B,,, !>!B,,2 | [=B,,=B,] z z [_B,,_B,] z4 | [B,,A,] z z [B,,_G,] z4 | %27
 x8 | x4 [B,,A,]2 !>![B,,,B,,]2 | !>![E,,E,]2 [_G,B,E]2 [B,,,B,,]2 [_G,B,E]2 | %30
 !arpeggio![E,,B,,E,]2 z2 z B,,, !>!B,,2 | !>![E,,E,]2 [_G,B,E]2 [B,,,B,,]2 [_G,B,E]2 | %32
 !arpeggio![E,,B,,E,]2 z2 z B,,, !>!B,,2 | [=B,,=B,] z z [_B,,_B,] z4 | [B,,A,] z z [B,,_G,] z4 | %35
 x8 | _G,2 [B,,A,]2 !arpeggio![E,,B,,_G,]2 !>![B,,,B,,]2 :| !>![C,,C,]4 !>![F,,F,]3 !>![F,,F,] | %38
 !>![E,,E,]4 z [G,,G,] [^F,,^F,][=F,,=F,] | [C,,C,]2 [G,CE]2 [C,,C,]2 [G,CE]2 | %40
 [G,,D,=B,]2 [B,DF]2 z2 [G,,,G,,]2 | !>![G,,G,]4 !>![F,,F,]3 !>![F,,F,] | %42
 !>![D,,D,]4 z [G,,G,] [G,,G,][^F,,^F,] | [F,,F,]2 [=B,DF]2 [G,,,G,,]2 [B,DF]2 | %44
 [C,,G,,C,]2 [C,C]2 [G,,G,]2 [E,,E,]2 | [F,,F,]2 [=B,DF]2 [G,,,G,,]2 [G,B,DF]2 | %46
 [E,,E,]2 [G,CE]2 [G,,,G,,]2 [G,CE]2 | !arpeggio![G,,D,=B,]2 [B,DF]2 [G,,,G,,]2 [B,DF]2 | %48
 [E,,E,]2 [G,CE]2 [G,,,G,,]2 [G,=B,DF]2 | !>![C,,C,]4 !>![F,,F,]3 !>![F,,F,] | %50
 !>![E,,E,]4 z2 [=A,,^F,]2 | [=B,,F,]2 [=B,DF]2 [G,,,G,,]2 [B,DF]2 | %52
 [C,,C,]4 !arpeggio!!>![C,,G,,E,] z z2 |[M:4/4] x8 | x4 [B,F]2 [B,F]2 | %55
 [F,C]2 [_E,B,]2 [_D,_A,]2 [=B,,_G,]2 | [_B,,F,]2 B,,,2 [B,,F,B,]2 z2 |: %57
[K:Gb] [E,,E,]2 z2 [G,,G,]2 z2 | [B,,B,]2 z2 [E,E]2 z2 | [F,,F,]2 [A,DF]2 [A,,,A,,]2 [A,DF]2 | %60
 !arpeggio![G,,D,B,]2 [B,DG]2 [D,,D,]2 [B,DG]2 | [A,,F,]2 [A,DF]2 [D,,D,]2 [A,DF]2 | %62
 !arpeggio![E,,B,,G,]2 [B,EG]2 [B,,,B,,]2 [B,EG]2 | %63
 !arpeggio![F,,C,=A,]2 [A,CE]2 [=C,,=C,]2 [A,CE]2 | z [=D,A,B,]2 z [C,A,_C]2 [_D,A,]2 | %65
 [E,,E,]2 z2 [G,,G,]2 z2 | [B,,B,]2 z2 [E,E]2 z2 | [F,,F,]2 [A,DF]2 [A,,,A,,]2 [A,DF]2 | %68
 !arpeggio![G,,D,B,]4 !arpeggio![E,,B,,=G,]4 | [D,,D,]2 [A,DF]2 [A,,,A,,]2 [A,DF]2 | %70
 !arpeggio![G,,D,B,]2 [B,DG]2 !arpeggio![E,,B,,=G,]2 [B,DE=G]2 | [A,,,A,,]2 [=CEG]2 D,,2 [D,_C]2 | %72
 !arpeggio![G,,D,B,]2 F,,,2 !arpeggio![G,,D,B,]2 z2 :|[M:4/4] (3A,,=A,,B,, C,=C, ^C,=D, E,=E, | %74
 (3F,^F,G, A,=A, B,C =C^C |[K:treble] (3=DE=E FG =GA =AB | %76
 _c2[K:bass] !>![D,_C]2 !arpeggio!!>![G,,D,_B,]2 z2 |] %77
V:3
 x8 | x8 | x8 | x8 |: x8 | x8 | x8 | x8 | x8 | x8 | x8 | x6!8va(! x2 | x8 | x8 | x8 | x6!8va)! x2 | %16
 x8 | x8 | x8 |1 x8 :|2 x8 |: x8 | x8 | x8 | x8 | x8 | x8 | b a2 B A2 B,A,- | A,B, A,2 x4 | x8 | %30
 x8 | x8 | x8 | x8 | x8 | _g e2 _G E2 _G,[I:staff +1]E, | x8 :| x8 | x8 | x8 | x8 | x8 | x8 | x8 | %44
 x6!8va(! x2 | x8 | x8 | x8 | x6!8va)! x2 | x8 | x8 | x8 | x8 | %53
[M:4/4][I:staff -1] [Fc]2 x2 [B,F]2 [B,F]2 | [F,C]2 x6 | x8 | x8 |:[K:Gb] x8 | x8 | x8 | x8 | x8 | %62
 x8 | x8 | x8 | x8 | x8 | x8 | x8 | x8 | x8 | x8 | x4!8va(! x4!8va)! :|[M:4/4] x8 | x8 | x8 | x8 |] %77

